icon/pk/direction-adjustment.svg

<svg width="48" height="48" fill="none" xmlns="http://www.w3.org/2000/svg"><path d="m20 8 4-4m0 0 4 4m-4-4v12M20 40l4 4m0 0 4-4m-4 4V32M40 20l4 4m0 0-4 4m4-4H32M8 20l-4 4m0 0 4 4m-4-4h12" stroke="#000" stroke-width="4" stroke-linecap="round" stroke-linejoin="round"/><circle cx="24" cy="24" r="2" stroke="#000" stroke-width="4" stroke-linecap="round" stroke-linejoin="round"/></svg>

<svg viewBox="0 0 48 48" fill="none" xmlns="http://www.w3.org/2000/svg" height="1em" width="1em">
  <path d="M20 8L24 4M24 4L28 8M24 4V16" stroke="black" stroke-width="4" stroke-linecap="round" stroke-linejoin="round"/>
  <path d="M20 40L24 44M24 44L28 40M24 44V32" stroke="black" stroke-width="4" stroke-linecap="round" stroke-linejoin="round"/>
  <path d="M40 20L44 24M44 24L40 28M44 24H32" stroke="black" stroke-width="4" stroke-linecap="round" stroke-linejoin="round"/>
  <path d="M8 20L4 24M4 24L8 28M4 24H16" stroke="black" stroke-width="4" stroke-linecap="round" stroke-linejoin="round"/>
  <circle cx="24" cy="24" r="2" stroke="black" stroke-width="4" stroke-linecap="round" stroke-linejoin="round"/>
</svg>
